build/img/icons/search.svg

<svg width="23" height="23" viewBox="0 0 23 23" fill="none" xmlns="http://www.w3.org/2000/svg">
<path fill-rule="evenodd" clip-rule="evenodd" d="M16.7391 15.2563L22.2131 20.9496C22.6762 21.4313 22.6609 22.1992 22.1796 22.6623C21.9531 22.8803 21.6547 23.0002 21.3402 23.0002C21.0079 23.0002 20.6978 22.8682 20.4673 22.6288L14.9517 16.8923C13.3855 17.9929 11.5537 18.5727 9.63146 18.5727C4.5111 18.5727 0.345215 14.4068 0.345215 9.28648C0.345215 4.16613 4.5111 0.000244141 9.63146 0.000244141C14.7518 0.000244141 18.9177 4.16613 18.9177 9.28648C18.9177 11.478 18.1465 13.5832 16.7391 15.2563ZM16.4952 9.28649C16.4952 5.50174 13.4162 2.42274 9.63146 2.42274C5.84671 2.42274 2.76771 5.50174 2.76771 9.28649C2.76771 13.0712 5.84671 16.1502 9.63146 16.1502C13.4162 16.1502 16.4952 13.0712 16.4952 9.28649Z" fill="url(#paint0_linear)"/>
<defs>
<linearGradient id="paint0_linear" x1="0.345215" y1="0.000244141" x2="0.345215" y2="23.0002" gradientUnits="userSpaceOnUse">
<stop stop-color="#FFBA10"/>
<stop offset="1" stop-color="#FC7712"/>
</linearGradient>
</defs>
</svg>

<svg width="23" height="23" fill="none" xmlns="http://www.w3.org/2000/svg"><path fill-rule="evenodd" clip-rule="evenodd" d="M16.74 15.256l5.473 5.694A1.213 1.213 0 0121.34 23c-.332 0-.642-.132-.873-.371l-5.515-5.737a9.187 9.187 0 01-5.32 1.68c-5.12 0-9.287-4.165-9.287-9.286C.345 4.166 4.511 0 9.631 0c5.12 0 9.287 4.166 9.287 9.286a9.257 9.257 0 01-2.179 5.97zm-.245-5.97a6.871 6.871 0 00-6.864-6.863 6.871 6.871 0 00-6.863 6.863A6.871 6.871 0 009.63 16.15a6.871 6.871 0 006.864-6.864z" fill="url(#paint0_linear)"/><defs><linearGradient id="paint0_linear" x1=".345" y1="0" x2=".345" y2="23" gradientUnits="userSpaceOnUse"><stop stop-color="#FFBA10"/><stop offset="1" stop-color="#FC7712"/></linearGradient></defs></svg>
